X:1
T:Play last time in A
L:1/8
Q:1/4=160
M:6/8
K:A
"A" c2 d c2 B |"A" A3 A2 c |"A" e2 e"D" f2 f |"A" e3- e2 z :|
 d z d4 | B z B4 | E z G4 | c z B4 |
 A3 Bcd | c3 e3 |B2 d c2 B | A2 F E2 z |
 A3 Bcd | c3 e3 | B2 d c2 B | A3- A z z |]
